lib/icons/sidebar.svg

<svg width="12" height="10" viewBox="0 0 12 10" fill="none" xmlns="http://www.w3.org/2000/svg">
<path fill-rule="evenodd" clip-rule="evenodd" d="M6 9.50024C6 9.77639 6.22386 10.0002 6.5 10.0002L11.4931 10.0002C11.7693 10.0002 11.9931 9.77639 11.9931 9.50025C11.9931 9.2241 11.7693 9.00025 11.4931 9.00025L6.5 9.00024C6.22386 9.00024 6 9.2241 6 9.50024ZM6.50397 5.49807C6.22783 5.49807 6.00397 5.27421 6.00397 4.99807C6.00397 4.72193 6.22783 4.49807 6.50397 4.49807L11.4971 4.49807C11.7732 4.49807 11.9971 4.72193 11.9971 4.99807C11.9971 5.27421 11.7732 5.49807 11.4971 5.49807L6.50397 5.49807ZM6.50397 1.00053C6.22783 1.00053 6.00397 0.776669 6.00397 0.500527C6.00397 0.224385 6.22783 0.000526973 6.50397 0.000526997L11.4971 0.000527433C11.7732 0.000527457 11.9971 0.224385 11.9971 0.500527C11.9971 0.77667 11.7732 1.00053 11.4971 1.00053L6.50397 1.00053ZM3.81237 7.11048C4.02684 7.28443 4.05968 7.5993 3.88573 7.81377C3.71178 8.02824 3.3969 8.06108 3.18244 7.88713L0.1865 5.45717C0.0712886 5.36372 0.00351944 5.22394 0.00151119 5.07561C-0.000497115 4.92728 0.0634629 4.78572 0.176102 4.68919L3.17204 2.12168C3.38172 1.94199 3.69737 1.9663 3.87706 2.17597C4.05675 2.38565 4.03245 2.7013 3.82277 2.88099L1.28217 5.05827L3.81237 7.11048Z" fill="#14C393"/>
</svg>

<svg width="12" height="10" fill="none" xmlns="http://www.w3.org/2000/svg"><path fill-rule="evenodd" clip-rule="evenodd" d="M6 9.5a.5.5 0 0 0 .5.5h4.993a.5.5 0 1 0 0-1H6.5a.5.5 0 0 0-.5.5Zm.504-4.002a.5.5 0 0 1 0-1h4.993a.5.5 0 0 1 0 1H6.504Zm0-4.497a.5.5 0 0 1 0-1h4.993a.5.5 0 0 1 0 1H6.504ZM3.812 7.11a.5.5 0 1 1-.63.776L.187 5.457a.5.5 0 0 1-.01-.768l2.995-2.567a.5.5 0 0 1 .65.759l-2.54 2.177 2.53 2.052Z" fill="#14C393"/></svg>
